icons/1_Primary/Kialo.svg

<svg width="1024" height="1024" fill="none" xmlns="http://www.w3.org/2000/svg"><g clip-path="url(#a)"><path d="M512 1024c282.77 0 512-229.23 512-512S794.77 0 512 0 0 229.23 0 512s229.23 512 512 512Z" fill="#9ABEFF"/><path d="M470 224c0 68.828-48.866 151.54-144.5 163.5a419.11 419.11 0 0 0-21-.5v50.5c6.297 0 12.781.042 19-.5 36.051 1.833 71.035 9.04 104.5 21-31.882 16.71-67.172 26.752-103.5 29.5-6.724-.429-13.217-1-20-1v51c6.783 0 13.276-.571 20-1 36.33 2.748 71.62 12.791 103.5 29.5-33.465 11.96-68.449 19.168-104.5 21-6.219-.54-12.704-.5-19-.5V637c6.997 0 14.048-.154 21-.5C421.198 648.392 470 731.123 470 800h49c0-64.395-30.806-136.27-98-179.5 19.286-5.601 37.748-12.677 56-21 58.188 49.776 93 123.06 93 200.5h49.5c0-44.191-10.757-142.86-96-225 14.47-8.958 28.131-18.738 41.5-29.5 36.575 37.076 105 123.46 105 254.5h49.5c0-147.74-76.155-245.73-117.5-288 41.362-42.289 117.5-140.29 117.5-288H670c0 130.99-68.378 217.37-105 254.5-13.369-10.762-27.03-20.542-41.5-29.5 85.21-82.109 96-180.74 96-225H570c0 75.857-34.129 150.17-93 200.5-18.252-8.324-36.715-15.399-56-21 65.123-41.903 98-112.74 98-179.5h-49Zm12.5 258.5c15.615 8.687 30.709 18.522 45 29.5-14.291 10.978-29.385 20.814-45 29.5-17.042-11.653-35.14-21.448-54-29.5 18.859-8.053 36.959-17.848 54-29.5Z" fill="#fff"/></g><defs><clipPath id="a"><path fill="#fff" d="M0 0h1024v1024H0z"/></clipPath></defs></svg>

<svg width="1024" height="1024" viewBox="0 0 1024 1024" fill="none" xmlns="http://www.w3.org/2000/svg">
<g clip-path="url(#clip0_2_2601)">
<path d="M512 1024C794.77 1024 1024 794.77 1024 512C1024 229.23 794.77 0 512 0C229.23 0 0 229.23 0 512C0 794.77 229.23 1024 512 1024Z" fill="#9ABEFF"/>
<path d="M470 224C470 292.828 421.134 375.54 325.5 387.5C318.507 387.15 311.539 387 304.5 387V437.5C310.797 437.5 317.281 437.542 323.5 437C359.551 438.833 394.535 446.04 428 458C396.118 474.71 360.828 484.752 324.5 487.5C317.776 487.071 311.283 486.5 304.5 486.5V537.5C311.283 537.5 317.776 536.929 324.5 536.5C360.83 539.248 396.12 549.291 428 566C394.535 577.96 359.551 585.168 323.5 587C317.281 586.46 310.796 586.5 304.5 586.5V637C311.497 637 318.548 636.846 325.5 636.5C421.198 648.392 470 731.123 470 800H519C519 735.605 488.194 663.73 421 620.5C440.286 614.899 458.748 607.823 477 599.5C535.188 649.276 570 722.56 570 800H619.5C619.5 755.809 608.743 657.14 523.5 575C537.97 566.042 551.631 556.262 565 545.5C601.575 582.576 670 668.96 670 800H719.5C719.5 652.26 643.345 554.27 602 512C643.362 469.711 719.5 371.71 719.5 224H670C670 354.99 601.622 441.37 565 478.5C551.631 467.738 537.97 457.958 523.5 449C608.71 366.891 619.5 268.26 619.5 224H570C570 299.857 535.871 374.17 477 424.5C458.748 416.176 440.285 409.101 421 403.5C486.123 361.597 519 290.76 519 224H470ZM482.5 482.5C498.115 491.187 513.209 501.022 527.5 512C513.209 522.978 498.115 532.814 482.5 541.5C465.458 529.847 447.36 520.052 428.5 512C447.359 503.947 465.459 494.152 482.5 482.5Z" fill="white"/>
</g>
<defs>
<clipPath id="clip0_2_2601">
<rect width="1024" height="1024" fill="white"/>
</clipPath>
</defs>
</svg>
